logos/treasuredata.svg

<?xml version="1.0" encoding="UTF-8"?>
<svg width="512px" height="50px" viewBox="0 0 512 50" version="1.1" xmlns="http://www.w3.org/2000/svg" xmlns:xlink="http://www.w3.org/1999/xlink" preserveAspectRatio="xMidYMid">
    <defs>
        <linearGradient x1="28.0276375%" y1="64.7748416%" x2="65.9335499%" y2="20.3838598%" id="linearGradient-1">
            <stop stop-color="#8855FF" offset="0%"></stop>
            <stop stop-color="#00B6FF" offset="100%"></stop>
        </linearGradient>
        <linearGradient x1="49.1979953%" y1="50.8639512%" x2="57.1260448%" y2="43.3468532%" id="linearGradient-2">
            <stop stop-color="#FFFFFF" offset="7%"></stop>
            <stop stop-color="#009FFF" offset="89%"></stop>
        </linearGradient>
        <linearGradient x1="19.3675746%" y1="222.565203%" x2="129.608939%" y2="308.847796%" id="linearGradient-3">
            <stop stop-color="#FFFFFF" offset="7%"></stop>
            <stop stop-color="#009FFF" offset="89%"></stop>
        </linearGradient>
        <linearGradient x1="11.0147792%" y1="39.4618813%" x2="75.4298469%" y2="63.2664677%" id="linearGradient-4">
            <stop stop-color="#4036C1" offset="0%"></stop>
            <stop stop-color="#539EFF" offset="98%"></stop>
        </linearGradient>
    </defs>
    <g>
        <g>
            <path d="M39.0656438,48.3718533 L72.0749087,15.3575794 C72.7405042,14.6940691 73.1146077,13.7929036 73.1146077,12.8530828 C73.1146077,11.9132619 72.7405042,11.0120964 72.0749087,10.3485862 L72.0749087,10.3485862 L63.4043416,1.67301005 C62.3361475,0.601426516 60.8851552,-0.000600110731 59.3721021,5.87466323e-06 L13.7902644,5.87466323e-06 C12.2759148,5.87466323e-06 10.8236876,0.602068012 9.75301588,1.67301005 L1.05239476,10.3636132 C0.388073769,11.0145149 0.00957307948,11.9026855 0,12.8326893 C-0.00921487701,13.7626932 0.351267573,14.6583283 1.00230483,15.3225164 L1.05239476,15.3726063 L34.0616597,48.3868802 C34.7251699,49.0524757 35.6263354,49.4265792 36.5661562,49.4265792 C37.5059771,49.4265792 38.4071426,49.0524757 39.0706528,48.3868802 L39.0656438,48.3718533 Z" fill="url(#linearGradient-1)"></path>
            <path d="M9.48753924,1.93848668 C10.6796541,0.740458997 12.3955321,0.224377154 14.050732,0.566022559 L71.3736497,12.1918957 C72.320969,12.3878387 72.9320317,13.3122669 72.7411048,14.2606099 C72.7173228,14.3795519 72.6803622,14.4954739 72.630907,14.6062304 C73.4378344,13.2262127 73.2091608,11.4751087 72.0749087,10.3485862 L63.4043416,1.67301005 C62.3361475,0.601426516 60.8851552,-0.000600110731 59.3721021,5.87466323e-06 L13.7902644,5.87466323e-06 C12.2759148,0.000276612475 10.8236876,0.602068012 9.75301588,1.67301005 L9.48753924,1.93848668 Z" fill="url(#linearGradient-2)" opacity="0.400000006"></path>
            <path d="M60.4891076,2.53956586 L57.1531181,9.31673361 L71.3736497,12.1918957 C72.320969,12.3878387 72.9320317,13.3122669 72.7411048,14.2606099 C72.7173228,14.3795519 72.6803622,14.4954739 72.630907,14.6062304 C73.4378344,13.2262127 73.2091608,11.4751087 72.0749087,10.3485862 L63.4043416,1.67301005 C62.3361475,0.601426516 60.8851552,-0.000600110731 59.3721021,0 L58.9313107,0 C59.5386406,-0.00162741224 60.1030384,0.312963884 60.4210542,0.830378784 C60.7390701,1.34779368 60.7648525,1.99343118 60.4891076,2.53455687 L60.4891076,2.53956586 Z" fill="url(#linearGradient-3)" opacity="0.400000006"></path>
            <path d="M72.630907,14.6262664 C73.0148455,13.7382457 72.6068578,12.7070681 71.7192702,12.3221295 C71.6085138,12.2726743 71.4925918,12.2357137 71.3736497,12.2119317 L57.1531181,9.31673361 L38.0187643,47.9310619 C37.5071226,48.9648494 36.3206408,49.4742513 35.2187371,49.1332202 C36.5372114,49.6787679 38.054374,49.3784962 39.0656438,48.3718533 L72.0749087,15.3575794 C72.2947608,15.1420923 72.482059,14.8957361 72.630907,14.6262664 L72.630907,14.6262664 Z" fill="url(#linearGradient-4)"></path>
        </g>
        <path d="M273.541623,6.10596899 L273.541623,25.0850441 C273.541623,28.2006378 274.292971,30.5682219 275.795669,32.1877964 C277.298367,33.8073708 279.37543,34.617158 282.026857,34.617158 C284.644891,34.617158 286.706926,33.8390944 288.212963,32.2829672 C289.719001,30.72684 290.47035,28.4060065 290.46701,25.3204667 L290.46701,6.10596899 L296.282451,6.10596899 L296.302487,25.0349541 C296.352074,27.2474105 296.012998,29.4514035 295.300689,31.5466452 C294.693513,33.3046461 293.708719,34.9083551 292.415509,36.2450808 C291.149473,37.5166947 289.606607,38.4784149 287.907415,39.055126 C285.99636,39.701456 283.988931,40.0165462 281.971758,39.9867987 C279.977681,40.0140567 277.993714,39.6989261 276.106227,39.055126 C274.412124,38.4774798 272.870866,37.5236122 271.598133,36.2651168 C270.316507,34.9626821 269.339677,33.392226 268.737998,31.6668611 C268.036022,29.619211 267.696998,27.4647098 267.736199,25.3004308 L267.736199,6.10596899 L273.541623,6.10596899 Z M254.79797,6.6820032 C256.791854,7.41838463 258.652759,8.47402514 260.307863,9.80761493 L257.162215,14.2405739 C255.773129,13.2038808 254.258389,12.3472112 252.654121,11.6909964 C251.220786,11.1143847 249.690986,10.8152237 248.146027,10.8094136 C246.427943,10.8094136 245.090541,11.195106 244.138833,11.976509 C243.241755,12.6428967 242.712443,13.6940933 242.71127,14.8115991 C242.676766,15.4040564 242.770744,15.9969709 242.986764,16.5497197 C243.27239,17.0918549 243.693434,17.5508611 244.208959,17.8821119 C244.961989,18.3778391 245.781638,18.7640523 246.643329,19.0291713 C247.680191,19.3798009 248.992547,19.7454574 250.590416,20.1261408 C252.173431,20.5177673 253.729465,21.0113481 255.24878,21.6037938 C256.478709,22.0741008 257.618908,22.7517821 258.619832,23.6073911 C259.478282,24.3548608 260.162236,25.2816172 260.623429,26.3222654 C261.11098,27.4748048 261.348295,28.7177192 261.319679,29.9688124 C261.34916,31.4324562 261.049599,32.8840395 260.443105,34.2164386 C259.877692,35.4342036 259.045719,36.5092632 258.008735,37.3620863 C256.899808,38.255197 255.624567,38.9192076 254.256999,39.3155936 C252.696427,39.776748 251.075531,40.0013096 249.448365,39.9817897 C246.925673,39.9906738 244.421759,39.5479086 242.055092,38.6744425 C239.648853,37.7661753 237.43857,36.4060011 235.5434,34.667248 L239.074741,30.4747207 C240.547959,31.7769903 242.201237,32.8600562 243.983554,33.6904943 C245.757215,34.4610517 247.67509,34.8436021 249.608653,34.8125088 C251.421909,34.8125088 252.861159,34.4301556 253.926405,33.6654493 C254.952926,32.974364 255.555512,31.806972 255.524274,30.5698916 C255.534625,30.01322 255.428857,29.4604999 255.213717,28.9469778 C254.954055,28.4143105 254.556193,27.9610939 254.061648,27.6346216 C253.351536,27.1592762 252.579654,26.7834474 251.767529,26.5176161 C250.521467,26.087424 249.254204,25.7212886 247.970712,25.4206466 C246.358317,25.0553748 244.769282,24.5937185 243.212169,24.0381645 C241.94634,23.5993242 240.761645,22.9545118 239.705874,22.1297381 C238.780931,21.3898341 238.043088,20.4426497 237.552007,19.3647739 C237.025541,18.1136957 236.772775,16.7644769 236.810676,15.4076693 C236.790133,14.0249537 237.081173,12.6553558 237.662205,11.4004748 C238.220291,10.2228647 239.018837,9.17519921 240.006413,8.32495296 C241.053404,7.42313346 242.271489,6.74168774 243.587843,6.3213557 C245.065248,5.84690461 246.609425,5.61350215 248.161054,5.63011464 C250.418038,5.5872274 252.664857,5.94332704 254.79797,6.6820032 Z M128.000317,6.10596899 L128.000317,11.5407266 L117.416315,11.5407266 L117.416315,39.4808904 L111.500694,39.4808904 L111.500694,11.5407266 L100.9217,11.5407266 L100.9217,6.10596899 L128.000317,6.10596899 Z M149.073152,6.10596899 C150.825729,6.08622117 152.570911,6.33625692 154.247441,6.84729998 C155.676709,7.27934129 157.00511,7.99293107 158.154456,8.94606811 C159.221317,9.85166248 160.061798,10.9940309 160.608863,12.2820576 C161.656286,14.8839008 161.750316,17.7722384 160.874339,20.4366984 C160.498708,21.4927778 159.942826,22.4757386 159.23139,23.3419144 C158.520087,24.189351 157.673902,24.9136855 156.726893,25.4857635 C155.72231,26.0883236 154.638146,26.5469433 153.506111,26.8482097 L162.522298,39.4808904 L155.604879,39.4808904 L147.380112,27.8500083 L140.011883,27.8500083 L140.011883,39.4808904 L134.196442,39.4808904 L134.196442,6.10596899 L149.073152,6.10596899 Z M193.362669,6.10596899 L193.362669,11.4004748 L174.483774,11.4004748 L174.483774,19.98088 L191.21882,19.98088 L191.21882,25.2753858 L174.483774,25.2753858 L174.483774,34.1913936 L193.603101,34.1913936 L193.603101,39.4808904 L168.668333,39.4808904 L168.668333,6.10596899 L193.362669,6.10596899 Z M217.866664,5.87054631 L232.558041,39.4808904 L226.356907,39.4808904 L222.975837,31.4214204 L207.192499,31.4214204 L203.761339,39.4808904 L197.750547,39.4808904 L212.431906,5.87054631 L217.866664,5.87054631 Z M319.233658,6.10596899 C320.986236,6.08622117 322.731418,6.33625692 324.407948,6.84729998 C325.837216,7.27934129 327.165617,7.99293107 328.314963,8.94606811 C329.381753,9.85287606 330.223627,10.9948069 330.774378,12.2820576 C331.820164,14.8844958 331.91242,17.7728261 331.034846,20.4366984 C330.659214,21.4927778 330.103333,22.4757386 329.391896,23.3419144 C328.680594,24.189351 327.834409,24.9136855 326.8874,25.4857635 C325.882816,26.0883236 324.798653,26.5469433 323.666617,26.8482097 L332.682805,39.4808904 L325.765385,39.4808904 L317.540618,27.8500083 L310.172389,27.8500083 L310.172389,39.4808904 L304.356948,39.4808904 L304.356948,6.10596899 L319.233658,6.10596899 Z M363.55323,6.10596899 L363.528185,11.4004748 L344.669325,11.4004748 L344.669325,19.98088 L361.404371,19.98088 L361.404371,25.2753858 L344.669325,25.2753858 L344.669325,34.1913936 L363.788652,34.1913936 L363.788652,39.4808904 L338.853884,39.4808904 L338.853884,6.10596899 L363.55323,6.10596899 Z M437.335699,5.87054631 L452.017058,39.4808904 L445.815924,39.4808904 L442.434854,31.4214204 L426.651516,31.4214204 L423.220356,39.4808904 L417.209564,39.4808904 L431.895932,5.87054631 L437.335699,5.87054631 Z M478.143966,6.10596899 L478.143966,11.5407266 L467.559963,11.5407266 L467.559963,39.4808904 L461.644343,39.4808904 L461.644343,11.5407266 L451.06034,11.5407266 L451.06034,6.10596899 L478.143966,6.10596899 Z M497.308374,5.87054631 L511.994742,39.4808904 L505.793608,39.4808904 L502.412538,31.4214204 L486.6292,31.4214204 L483.19804,39.4808904 L477.187248,39.4808904 L491.873616,5.87054631 L497.308374,5.87054631 Z M397.519212,6.10596899 C399.969456,6.07746184 402.403582,6.50551463 404.697099,7.36823527 C406.783156,8.15836324 408.694187,9.3495671 410.322199,10.8745305 C411.89374,12.3656671 413.135872,14.1691483 413.968746,16.1690362 C414.836503,18.2522049 415.274369,20.4892407 415.256057,22.7458443 C415.271851,25.0119434 414.83416,27.2583057 413.968746,29.3527062 C413.139632,31.3604802 411.897182,33.1712487 410.322199,34.667248 C408.690826,36.1878306 406.780703,37.3784684 404.697099,38.1735432 C402.406482,39.049384 399.971433,39.4860954 397.519212,39.4608544 L385.076873,39.4608544 L385.076873,6.10596899 L397.519212,6.10596899 Z M397.504185,11.4004748 L390.907341,11.4004748 L390.907341,34.1913936 L397.504185,34.1913936 C399.13559,34.2114071 400.756337,33.9259925 402.282765,33.3498828 C403.653932,32.8363561 404.900316,32.0373044 405.93933,31.005674 C406.956976,29.9805114 407.754661,28.7584178 408.283538,27.4142259 C409.400363,24.4676962 409.400363,21.2143341 408.283538,18.2678044 C407.751856,16.9191462 406.954685,15.691027 405.93933,14.6563203 C404.902605,13.6097234 403.656572,12.7938278 402.282765,12.2620216 C400.760326,11.6695155 399.137687,11.3769642 397.504185,11.4004748 Z M215.056618,12.8781277 L209.336348,26.2170765 L220.826979,26.2170765 L215.056618,12.8781277 Z M434.515636,12.8781277 L428.82041,26.2170765 L440.311041,26.2170765 L434.515636,12.8781277 Z M494.498329,12.8781277 L488.77305,26.2170765 L500.26368,26.2170765 L494.498329,12.8781277 Z M148.577261,11.4004748 L140.011883,11.4004748 L140.011883,22.6506734 L148.622342,22.6506734 C150.726119,22.6506734 152.395784,22.1397561 153.631335,21.1179215 C154.86439,20.1140857 155.554389,18.5894105 155.494681,17.0005291 C155.504699,15.150541 154.90362,13.7547015 153.691443,12.8130108 C152.479267,11.8713201 150.77454,11.4004748 148.577261,11.4004748 Z M318.737768,11.4004748 L310.172389,11.4004748 L310.172389,22.6506734 L318.782849,22.6506734 C320.886626,22.6506734 322.55629,22.1397561 323.791842,21.1179215 C325.024896,20.1140857 325.714895,18.5894105 325.655187,17.0005291 C325.655187,15.150541 325.054108,13.7547015 323.85195,12.8130108 C322.639773,11.8713201 320.935046,11.4004748 318.737768,11.4004748 Z" fill="#2E40AA"></path>
    </g>
</svg>

<svg preserveAspectRatio="xMidYMid" viewBox="0 0 512 50" xmlns="http://www.w3.org/2000/svg">
  <defs>
    <linearGradient id="treasuredata_svg__a" x1="28.028%" x2="65.934%" y1="64.775%" y2="20.384%">
      <stop offset="0%" stop-color="#85F"/>
      <stop offset="100%" stop-color="#00B6FF"/>
    </linearGradient>
    <linearGradient id="treasuredata_svg__b" x1="49.198%" x2="57.126%" y1="50.864%" y2="43.347%">
      <stop offset="7%" stop-color="#FFF"/>
      <stop offset="89%" stop-color="#009FFF"/>
    </linearGradient>
    <linearGradient id="treasuredata_svg__c" x1="19.368%" x2="129.609%" y1="222.565%" y2="308.848%">
      <stop offset="7%" stop-color="#FFF"/>
      <stop offset="89%" stop-color="#009FFF"/>
    </linearGradient>
    <linearGradient id="treasuredata_svg__d" x1="11.015%" x2="75.43%" y1="39.462%" y2="63.266%">
      <stop offset="0%" stop-color="#4036C1"/>
      <stop offset="98%" stop-color="#539EFF"/>
    </linearGradient>
  </defs>
  <path fill="url(#treasuredata_svg__a)" d="m39.066 48.372 33.009-33.014a3.536 3.536 0 0 0 0-5.01l-8.67-8.675A5.69 5.69 0 0 0 59.371 0H13.79a5.71 5.71 0 0 0-4.037 1.673l-8.7 8.69a3.507 3.507 0 0 0-.05 4.96l.05.05 33.009 33.014a3.536 3.536 0 0 0 5.009 0l-.005-.015Z"/>
  <path fill="url(#treasuredata_svg__b)" d="M9.488 1.938A5.009 5.009 0 0 1 14.05.566l57.323 11.626a1.758 1.758 0 0 1 1.257 2.414 3.506 3.506 0 0 0-.556-4.257l-8.67-8.676A5.69 5.69 0 0 0 59.371 0H13.79a5.71 5.71 0 0 0-4.037 1.673l-.265.265Z" opacity=".4"/>
  <path fill="url(#treasuredata_svg__c)" d="m60.49 2.54-3.337 6.777 14.22 2.875a1.758 1.758 0 0 1 1.258 2.414 3.506 3.506 0 0 0-.556-4.257l-8.67-8.676A5.69 5.69 0 0 0 59.371 0h-.44a1.743 1.743 0 0 1 1.557 2.535v.005Z" opacity=".4"/>
  <path fill="url(#treasuredata_svg__d)" d="M72.63 14.626a1.753 1.753 0 0 0-1.256-2.414l-14.22-2.895L38.018 47.93a2.35 2.35 0 0 1-2.8 1.202 3.536 3.536 0 0 0 3.847-.761l33.009-33.014a3.17 3.17 0 0 0 .556-.732Z"/>
  <path fill="#2E40AA" d="M273.542 6.106v18.979c0 3.116.751 5.483 2.254 7.103 1.502 1.62 3.58 2.43 6.23 2.43 2.619 0 4.68-.779 6.187-2.335 1.506-1.556 2.257-3.877 2.254-6.963V6.106h5.815l.02 18.929a18.917 18.917 0 0 1-1.001 6.512 12.738 12.738 0 0 1-2.885 4.698 11.64 11.64 0 0 1-4.509 2.81 17.712 17.712 0 0 1-5.935.932 17.431 17.431 0 0 1-5.866-.932 11.851 11.851 0 0 1-4.508-2.79 12.357 12.357 0 0 1-2.86-4.598 18.593 18.593 0 0 1-1.002-6.367V6.106h5.806Zm-18.744.576a19.61 19.61 0 0 1 5.51 3.126l-3.146 4.433a20.537 20.537 0 0 0-4.508-2.55 12.202 12.202 0 0 0-4.508-.882c-1.718 0-3.055.386-4.007 1.168a3.536 3.536 0 0 0-1.428 2.835c-.034.592.06 1.185.276 1.738a3.551 3.551 0 0 0 1.222 1.332 9.517 9.517 0 0 0 2.434 1.147c1.037.35 2.35.716 3.947 1.097 1.583.392 3.14.885 4.659 1.478a11.52 11.52 0 0 1 3.37 2.003 7.779 7.779 0 0 1 2.004 2.715 8.84 8.84 0 0 1 .697 3.647 9.778 9.778 0 0 1-.877 4.247 8.956 8.956 0 0 1-2.434 3.146 10.754 10.754 0 0 1-3.752 1.954 16.28 16.28 0 0 1-4.809.666 21.138 21.138 0 0 1-7.393-1.308 20.166 20.166 0 0 1-6.512-4.007l3.532-4.192a20.457 20.457 0 0 0 4.909 3.215 13.57 13.57 0 0 0 5.625 1.123c1.813 0 3.252-.383 4.317-1.148a3.622 3.622 0 0 0 1.598-3.095 4.007 4.007 0 0 0-.31-1.623 3.31 3.31 0 0 0-1.152-1.312 9.357 9.357 0 0 0-2.294-1.117 38.634 38.634 0 0 0-3.797-1.097 41.344 41.344 0 0 1-4.759-1.383 12.172 12.172 0 0 1-3.506-1.908 7.549 7.549 0 0 1-2.154-2.765 9.517 9.517 0 0 1-.741-3.957 9.212 9.212 0 0 1 .851-4.008 9.332 9.332 0 0 1 2.344-3.075 10.278 10.278 0 0 1 3.582-2.004 14.45 14.45 0 0 1 4.573-.69 19.17 19.17 0 0 1 6.637 1.051ZM128 6.106v5.435h-10.584v27.94h-5.915V11.54h-10.58V6.106h27.08Zm21.073 0c1.753-.02 3.498.23 5.174.741a11.195 11.195 0 0 1 3.907 2.1 8.981 8.981 0 0 1 2.455 3.335 11.891 11.891 0 0 1 .265 8.155 9.697 9.697 0 0 1-1.643 2.905 10.063 10.063 0 0 1-2.504 2.144 12.522 12.522 0 0 1-3.22 1.362l9.015 12.633h-6.917L147.38 27.85h-7.368v11.63h-5.816V6.107h14.877Zm44.29 0V11.4h-18.88v8.58h16.736v5.295h-16.735v8.916h19.12v5.29h-24.936V6.106h24.695Zm24.504-.235 14.691 33.61h-6.201l-3.381-8.06h-15.784l-3.43 8.06h-6.011l14.68-33.61h5.436Zm101.367.235c1.752-.02 3.497.23 5.174.741a11.195 11.195 0 0 1 3.907 2.1 9.051 9.051 0 0 1 2.46 3.335 11.891 11.891 0 0 1 .26 8.155 9.697 9.697 0 0 1-1.643 2.905 10.063 10.063 0 0 1-2.505 2.144 12.522 12.522 0 0 1-3.22 1.362l9.016 12.633h-6.918l-8.224-11.631h-7.369v11.63h-5.815V6.107h14.877Zm44.32 0-.026 5.294H344.67v8.58h16.735v5.295H344.67v8.916h19.12v5.29h-24.935V6.106h24.7Zm73.782-.235 14.681 33.61h-6.201l-3.381-8.06h-15.783l-3.432 8.06h-6.01l14.686-33.61h5.44Zm40.808.235v5.435H467.56v27.94h-5.916V11.54H451.06V6.106h27.084Zm19.164-.235 14.687 33.61h-6.201l-3.381-8.06h-15.784l-3.431 8.06h-6.01l14.686-33.61h5.434Zm-99.789.235c2.45-.029 4.885.4 7.178 1.262a17.076 17.076 0 0 1 5.625 3.507 15.528 15.528 0 0 1 3.647 5.294 16.75 16.75 0 0 1 1.287 6.577 16.99 16.99 0 0 1-1.287 6.607 15.478 15.478 0 0 1-3.647 5.314 17.291 17.291 0 0 1-5.625 3.507 19.535 19.535 0 0 1-7.178 1.287h-12.442V6.106h12.442Zm-.015 5.294h-6.597v22.791h6.597c1.632.02 3.252-.265 4.779-.841a10.334 10.334 0 0 0 3.656-2.344 10.614 10.614 0 0 0 2.345-3.592 12.903 12.903 0 0 0 0-9.146 10.824 10.824 0 0 0-2.345-3.612 10.464 10.464 0 0 0-3.656-2.394 12.673 12.673 0 0 0-4.779-.862Zm-182.447 1.478-5.72 13.34h11.49l-5.77-13.34Zm219.459 0-5.696 13.34h11.491l-5.795-13.34Zm59.982 0-5.725 13.34h11.49l-5.765-13.34ZM148.578 11.4h-8.566v11.25h8.61c2.104 0 3.774-.51 5.01-1.532A5.064 5.064 0 0 0 155.494 17c.01-1.85-.591-3.246-1.804-4.188-1.212-.942-2.916-1.413-5.114-1.413Zm170.16 0h-8.566v11.25h8.61c2.105 0 3.774-.51 5.01-1.532A5.064 5.064 0 0 0 325.655 17c0-1.85-.6-3.246-1.803-4.188-1.212-.942-2.917-1.413-5.114-1.413Z"/>
</svg>
